X: 28682
T: Mutt's Favourite
R: reel
M: 4/4
K: Adorian
EAAc B2Ac|BAAg feeg|EAAc B2Ac|BGGA BcdD|
EAAc B2Ac|BAAg feef|gfgd e2eg|BGBc dBGD|
EAAc B2Ac|BAAg feeg|EAAc B2Ac|BGGA BcdD|
EAAc B2Ac|BAAg feef|gfgd e2eg|BGBc dBGB||
EA A/A/A fA A/A/A|gA A/A/A aA A/A/A|EAfA gAaA|fgdg BGGB|
EA A/A/A fA A/A/A|gA A/A/A aA A/A/A|EAfA gAaA|fgdg BGGD||

